src/images/Firefox.svg

<svg width="97" height="97" viewBox="0 0 97 97" fill="none" xmlns="http://www.w3.org/2000/svg">
<path fill-rule="evenodd" clip-rule="evenodd" d="M57.8152 35.5831C57.8142 35.5825 57.8131 35.582 57.812 35.5815C61.7698 35.0723 65.7778 36.033 69.0602 38.2774V38.2769C67.4447 35.4579 65.2572 33.0117 62.6454 31.086C61.9441 30.5694 61.2121 30.0904 60.4525 29.6518C56.8595 27.577 52.775 26.4799 48.6141 26.4719C48.1451 26.4719 47.6881 26.5041 47.2301 26.5363C47.1446 26.5423 47.059 26.5483 46.9733 26.5541C46.9735 26.5515 46.9736 26.5489 46.9738 26.5463C46.9704 26.5465 46.967 26.5467 46.9636 26.5469C47.325 20.2579 51.3065 7.69179 63.0343 0.902505L63.0263 0.914141L63.036 0.908632C63.0425 0.904878 63.0486 0.901364 63.0523 0.90012C63.0556 0.899051 63.0593 0.896302 63.063 0.893596L63.063 0.89359C63.0675 0.89027 63.0719 0.887018 63.0752 0.887018C63.104 0.879213 63.1344 0.879213 63.1632 0.887018C63.1926 0.890529 63.2196 0.904612 63.2392 0.926581C63.2529 0.941985 63.2622 0.96051 63.2665 0.980293C63.2732 0.99546 63.2767 1.01197 63.2766 1.02878C63.3217 1.20824 63.3727 1.38605 63.4296 1.56193C63.5726 1.9996 63.7518 2.42523 63.9655 2.83447C64.1089 3.12391 64.2739 3.43836 64.4799 3.78735C64.8401 4.39839 65.21 4.97726 65.5798 5.55495C68.5226 10.1594 71.7348 13.7613 74.8669 17.2735C78.2971 21.1199 81.6314 24.8588 84.4107 29.689C85.3886 31.3868 86.2979 33.2193 87.1187 35.2388V35.2337C87.1187 35.2181 87.1173 35.2055 87.1163 35.1973C87.116 35.1947 87.1158 35.1925 87.1156 35.1908C87.1155 35.1891 87.1155 35.1879 87.1156 35.1872C87.1159 35.1861 87.1168 35.1868 87.1187 35.1896L87.1261 35.2569C87.1265 35.2579 87.1269 35.2589 87.1273 35.2599L87.1188 35.1825C86.2834 30.3 84.6884 25.5749 82.3904 21.1751C85.6129 22.8224 89.7282 28.0335 91.7569 32.8598L91.7545 32.8622C94.7037 40.2219 95.7449 48.1939 94.7831 56.053C94.7655 56.2052 94.7482 56.3567 94.7309 56.5077C94.68 56.9533 94.6296 57.3948 94.5711 57.8396C92.5748 69.2217 86.3352 79.4503 77.0841 86.5062C67.8329 93.5621 56.2425 96.9325 44.6007 95.9522C32.959 94.9718 22.112 89.7119 14.201 81.2108C6.29002 72.7097 1.8899 61.5851 1.86926 50.0331V49.7949C1.93693 48.3155 2.06644 46.8398 2.25739 45.3715C2.5693 42.6176 3.13049 40.1931 3.14374 40.1386C4.2776 35.1142 6.40672 30.3628 9.40819 26.1563C10.2817 24.9316 11.2233 23.7566 12.2284 22.6365C12.7325 22.0709 13.2528 21.5193 13.7886 20.9821C15.1914 19.5631 16.7185 18.2697 18.352 17.117C18.8409 16.7905 19.3635 16.5162 19.9109 16.2987C19.9107 16.3019 19.9105 16.305 19.9103 16.3082C19.9112 16.3078 19.9122 16.3074 19.9132 16.307C19.8291 17.5747 19.7297 22.6526 20.6173 25.8537C20.8478 26.6825 21.1446 27.3849 21.5252 27.8619H21.5469C21.5491 27.8594 21.5514 27.8568 21.5536 27.8542C21.5402 27.8544 21.5307 27.8546 21.5251 27.8548C24.6298 24.254 28.4568 21.3297 32.7637 19.2669C32.762 19.2736 32.7602 19.2804 32.7584 19.2871C32.7675 19.2828 32.7765 19.2784 32.7855 19.2741C31.8077 22.9791 31.8531 26.8756 32.9169 30.5574C33.3346 30.8366 33.7368 31.138 34.1216 31.4603C34.7629 31.9978 35.4786 32.6958 36.8516 34.0349C37.0027 34.1824 37.1618 34.3376 37.3297 34.5011C39.4603 36.5757 43.8328 38.7014 46.4739 39.9854C47.7602 40.6108 48.6359 41.0365 48.6418 41.1594C48.5683 42.3076 44.4615 46.2681 43.0267 46.2681C29.7497 46.2681 27.5945 54.2091 27.5945 54.2091C27.9685 58.4599 30.0098 62.2355 32.9137 65.1702C34.5719 66.8432 36.5105 68.2422 38.58 69.2992C38.5403 69.2817 38.5012 69.2637 38.4626 69.2455C38.5057 69.2679 38.5489 69.2902 38.5922 69.3123C38.4571 69.2527 38.329 69.1883 38.2007 69.1239C38.1163 69.0814 38.0318 69.039 37.9453 68.9979C38.1718 69.1138 38.3982 69.2254 38.6247 69.3326L38.5922 69.3123C38.8524 69.4457 39.1162 69.5648 39.3801 69.6839C39.8371 69.8848 40.294 70.0699 40.751 70.239C42.7062 70.9231 44.7541 71.3137 46.8263 71.3979C49.6778 71.5293 52.2476 71.2154 54.531 70.5482C70.873 65.7618 72.5323 42.8681 57.7999 35.585C57.805 35.5844 57.8101 35.5837 57.8152 35.5831Z" fill="url(#paint0_linear_24_981)"/>
<path d="M48.6285 41.1499C48.5514 42.2981 44.4482 46.2585 43.0134 46.2585C29.7376 46.2585 27.5812 54.1996 27.5812 54.1996C28.1691 60.8864 32.8819 66.3965 38.5789 69.3028C38.8391 69.4362 39.1029 69.5565 39.3668 69.6744C39.8238 69.8745 40.2807 70.0595 40.7377 70.2294C42.6929 70.9135 44.7408 71.3042 46.813 71.3884C70.0879 72.4675 74.5935 43.8739 57.7987 35.5719C61.7604 35.0623 65.7724 36.0254 69.0567 38.2745C67.0054 34.6953 64.0321 31.7169 60.4392 29.6422C56.8462 27.5674 52.7617 26.4703 48.6008 26.4624C48.0467 26.4624 47.5045 26.5076 46.96 26.5446C42.2749 26.8621 37.7953 28.5686 34.1058 31.4412C34.8178 32.0367 35.6214 32.8324 37.314 34.4821C40.4823 37.5682 48.608 40.7651 48.6261 41.1403L48.6285 41.1499Z" fill="#5C03BC"/>
<defs>
<linearGradient id="paint0_linear_24_981" x1="6.34101" y1="90.0995" x2="76.4076" y2="2.29147" gradientUnits="userSpaceOnUse">
<stop stop-color="#5C03BC"/>
<stop offset="0.53125" stop-color="#E536AB"/>
<stop offset="0.898958" stop-color="#F4E5F0"/>
</linearGradient>
</defs>
</svg>

<svg xmlns="http://www.w3.org/2000/svg" width="97" height="97" fill="none"><path fill="url(#a)" fill-rule="evenodd" d="m57.815 35.583-.003-.002c3.958-.509 7.966.452 11.248 2.696a23.382 23.382 0 0 0-8.608-8.625 23.77 23.77 0 0 0-11.838-3.18c-.469 0-.926.032-1.384.064l-.257.018v-.008h-.01c.362-6.288 4.343-18.854 16.071-25.643l-.008.011.01-.005A.119.119 0 0 1 63.052.9c.004 0 .007-.004.011-.006.005-.004.009-.007.012-.007a.168.168 0 0 1 .088 0 .121.121 0 0 1 .104.093c.006.015.01.032.01.049a8.355 8.355 0 0 0 .689 1.806c.143.289.308.603.514.952.36.611.73 1.19 1.1 1.768 2.943 4.604 6.155 8.206 9.287 11.718 3.43 3.847 6.764 7.586 9.544 12.416a45.054 45.054 0 0 1 2.708 5.55v-.005a.292.292 0 0 0-.003-.037v-.006a.02.02 0 0 1 0-.004l.003.003.007.067.001.003-.008-.078a47.592 47.592 0 0 0-4.729-14.007c3.223 1.647 7.338 6.858 9.367 11.685l-.003.002a46.983 46.983 0 0 1 3.03 23.191c-.019.152-.036.304-.053.455-.051.445-.101.887-.16 1.332-1.996 11.382-8.236 21.61-17.487 28.666-9.251 7.056-20.842 10.427-32.483 9.446-11.642-.98-22.489-6.24-30.4-14.741C6.29 72.71 1.89 61.585 1.869 50.033v-.238c.068-1.48.197-2.955.388-4.424.312-2.753.873-5.178.887-5.232a38.763 38.763 0 0 1 6.264-13.983 40.37 40.37 0 0 1 2.82-3.52 40.522 40.522 0 0 1 1.56-1.654 33.903 33.903 0 0 1 4.564-3.865 8.376 8.376 0 0 1 1.559-.818v.01l.002-.002c-.084 1.268-.183 6.346.704 9.547.23.829.528 1.53.908 2.008h.022l.007-.008h-.029a34.529 34.529 0 0 1 11.239-8.587 1.503 1.503 0 0 1-.006.02l.027-.013a21.17 21.17 0 0 0 .132 11.283c.418.28.82.581 1.205.903.64.538 1.357 1.236 2.73 2.575l.478.466c2.13 2.075 6.503 4.2 9.144 5.484 1.286.626 2.162 1.051 2.168 1.174-.074 1.149-4.18 5.11-5.615 5.11-13.277 0-15.433 7.94-15.433 7.94.374 4.25 2.416 8.026 5.32 10.961a22.279 22.279 0 0 0 5.666 4.13 5.078 5.078 0 0 1-.117-.054l.13.066c-.136-.06-.264-.124-.392-.188a12.375 12.375 0 0 0-.256-.126c.227.116.453.227.68.335l-.033-.02c.26.133.524.252.788.37.457.202.914.387 1.371.556a20.977 20.977 0 0 0 6.075 1.159c2.852.131 5.422-.183 7.705-.85 16.342-4.786 18.001-27.68 3.269-34.963l.015-.002Z" clip-rule="evenodd"/><path fill="#5C03BC" d="M48.629 41.15c-.078 1.148-4.18 5.108-5.616 5.108-13.275 0-15.432 7.942-15.432 7.942.588 6.686 5.3 12.197 10.998 15.103.26.133.524.254.788.371.457.2.914.385 1.37.555a20.977 20.977 0 0 0 6.076 1.16c23.275 1.079 27.78-27.515 10.986-35.817 3.961-.51 7.973.453 11.258 2.703a23.428 23.428 0 0 0-8.618-8.633 23.769 23.769 0 0 0-11.838-3.18c-.554 0-1.096.046-1.641.083a23.514 23.514 0 0 0-12.854 4.896c.712.596 1.515 1.391 3.208 3.041 3.168 3.086 11.294 6.283 11.312 6.658l.003.01Z"/><defs><linearGradient id="a" x1="6.341" x2="76.408" y1="90.1" y2="2.291" gradientUnits="userSpaceOnUse"><stop stop-color="#5C03BC"/><stop offset=".531" stop-color="#E536AB"/><stop offset=".899" stop-color="#F4E5F0"/></linearGradient></defs></svg>
